X: 15887
T: Graih Foalsey
R: reel
M: 4/4
K: Gmajor
A,|D2 DE G2 (3GAB|A2 BG E2 DB,|D2 DE c2 BA|G2 E>E D3A,|
D2 DE G2 (3GAB|A2 BG E2 DB,|D2 DE c2 BA|G2 E>E D3B|
cB cd cB AG|A2 Bc d3B|cB cd cB AG|A2 Bc d3B|
cB cd cB AG|A2 BG E2 DB,|D2 DE c2 BA|G2 E>E D3||

